src/dsmComponents/Icons/beacon-12px.svg

<?xml version="1.0" encoding="UTF-8"?>
<svg width="12px" height="8px" viewBox="0 0 12 8" version="1.1" xmlns="http://www.w3.org/2000/svg" xmlns:xlink="http://www.w3.org/1999/xlink">
    <!-- Generator: Sketch 59.1 (86144) - https://sketch.com -->
    <title>beacon-12px</title>
    <desc>Created with Sketch.</desc>
    <defs>
        <path d="M10.5355945,0.15888374 C12.4881352,2.28059276 12.4881352,5.71954304 10.5355945,7.84070887 C10.3618131,8.02949836 10.0928198,8.05047497 9.89788025,7.9036387 L9.82857976,7.84070887 C9.63307569,7.62832069 9.63307569,7.28502317 9.82857976,7.07263499 C11.3901123,5.37678872 11.3911123,2.62660624 9.8305798,0.929673575 L9.82807975,0.926957614 C9.65474281,0.738650959 9.63548315,0.446051388 9.77065194,0.234187029 L9.82857976,0.15888374 C10.0240838,-0.0529612466 10.3400904,-0.0529612466 10.5355945,0.15888374 Z M2.17142024,0.15888374 C2.36692431,0.371271919 2.36692431,0.715112628 2.17142024,0.926957614 C0.661455447,2.56732585 0.611123287,5.1929127 2.02042376,6.89896218 L2.17192025,7.0720918 C2.34525719,7.26088129 2.36451685,7.55310532 2.22969923,7.76488027 L2.17142024,7.84070887 C1.99763884,8.02949836 1.72864558,8.05047497 1.53370599,7.9036387 L1.46440551,7.84070887 C-0.488135169,5.71954304 -0.488135169,2.28059276 1.46440551,0.15888374 C1.65990958,-0.0529612466 1.97591616,-0.0529612466 2.17142024,0.15888374 Z M9.12151503,1.69606355 C10.2930394,2.96821986 10.2930394,5.0318073 9.12151503,6.3045068 C8.94817809,6.49329629 8.67883914,6.5142729 8.48381725,6.36743663 L8.4145003,6.3045068 C8.21949624,6.09211862 8.21949624,5.7488211 8.4145003,5.53643292 C9.19551657,4.68796659 9.19551657,3.31206057 8.4145003,2.46413743 C8.21949624,2.25174925 8.21949624,1.90736535 8.4145003,1.69606355 C8.61000438,1.48367537 8.92651097,1.48367537 9.12151503,1.69606355 Z M3.5854997,1.69552036 C3.7592811,1.88382702 3.77859014,2.17642659 3.64342683,2.38790945 L3.5854997,2.46359424 C2.80448343,3.31151737 2.80448343,4.6874234 3.5854997,5.53588973 L3.5854997,5.53643292 C3.78100377,5.74827791 3.78100377,6.09157543 3.58599971,6.30396361 L3.5854997,6.3045068 C3.4117183,6.49329629 3.14272504,6.5142729 2.94778545,6.36743663 L2.87848497,6.3045068 C1.70746057,5.03235049 1.70696056,2.96984943 2.87698494,1.69769313 L2.87848497,1.69552036 C3.07398904,1.48313218 3.39049564,1.48313218 3.5854997,1.69552036 Z M6.00015,2.37005653 C6.82716723,2.37005653 7.50018125,3.10173652 7.50018125,3.99963335 C7.50018125,4.89807336 6.82716723,5.62921016 6.00015,5.62921016 C5.17313277,5.62921016 4.50011875,4.89807336 4.50011875,3.99963335 C4.50011875,3.10173652 5.17313277,2.37005653 6.00015,2.37005653 Z" id="path-1"></path>
    </defs>
    <g id="Final" stroke="none" stroke-width="1" fill="none" fill-rule="evenodd">
        <g id="All-Nucleo-Icons" transform="translate(-174.000000, -7321.000000)">
            <g id="Solo/Nucleo/12px/beacon" transform="translate(168.000000, 7313.000000)">
                <g id="Solo/Nucleo/16px/beacon-Copy" transform="translate(6.000000, 8.000000)">
                    <g id="Solo/Nucleo/16px/beacon">
                        <mask id="mask-2" fill="white">
                            <use xlink:href="#path-1"></use>
                        </mask>
                        <use id="Mask" fill="#000000" xlink:href="#path-1"></use>
                        <g id="colour/neutral/chia" mask="url(#mask-2)" fill="#737373">
                            <g transform="translate(-26.000000, -28.000000)" id="Colour">
                                <rect x="0" y="0" width="64" height="64"></rect>
                            </g>
                        </g>
                    </g>
                </g>
            </g>
        </g>
    </g>
</svg>

<svg width="12" height="8" xmlns="http://www.w3.org/2000/svg" xmlns:xlink="http://www.w3.org/1999/xlink"><defs><path d="M10.536.159c1.952 2.122 1.952 5.56 0 7.682a.47.47 0 01-.638.063l-.07-.063a.576.576 0 010-.768c1.562-1.696 1.563-4.446.003-6.143L9.828.927a.579.579 0 01-.057-.693L9.829.16a.473.473 0 01.707 0zm-8.365 0a.576.576 0 010 .768c-1.51 1.64-1.56 4.266-.15 5.972l.15.173a.58.58 0 01.059.693l-.059.076a.47.47 0 01-.637.063l-.07-.063C-.488 5.72-.488 2.28 1.464.159a.473.473 0 01.707 0zm6.95 1.537c1.172 1.272 1.172 3.336 0 4.609a.47.47 0 01-.637.062l-.07-.062a.577.577 0 010-.769c.782-.848.782-2.224 0-3.072a.577.577 0 010-.768.472.472 0 01.708 0zm-5.536 0c.174.188.194.48.058.692l-.058.076c-.78.848-.78 2.223 0 3.072a.576.576 0 01.001.768.47.47 0 01-.638.063l-.07-.062c-1.17-1.273-1.171-3.335-.001-4.607l.001-.002a.472.472 0 01.707 0zM6 2.37c.827 0 1.5.732 1.5 1.63 0 .898-.673 1.63-1.5 1.63S4.5 4.897 4.5 4c0-.898.673-1.63 1.5-1.63z" id="beacon-12px_svg__a"/></defs><use fill="#737373" xlink:href="#beacon-12px_svg__a" fill-rule="evenodd"/></svg>
